#title "Pitch LFO test"

@0 = {
/* AR D1R D2R  RR D1L   TL KS MUL DT1 DT2 AME */
   14,  4,  2,  2,  0,  26, 0,  1,  5,  0,  0,
   15, 12,  2,  9,  2,   0, 0,  1,  0,  0,  0,
   14,  4,  2,  2,  0,  36, 0,  1,  1,  0,  0,
   15, 12,  2,  9,  2,   0, 0,  1,  0,  0,  0,
/* CON FL MASK */
    4,  7,  15
}

A t129 @0 c MAON MA2,4,1 MA2,4,2 MA2,4,3 MA2,4,4 d MAOF e
