#title "Note length test"

@0 = {
/* AR D1R D2R  RR D1L   TL KS MUL DT1 DT2 AME */
   14,  4,  2,  2,  0,  26, 0,  1,  5,  0,  0,
   15, 12,  2,  9,  2,   0, 0,  1,  0,  0,  0,
   14,  4,  2,  2,  0,  36, 0,  1,  1,  0,  0,
   15, 12,  2,  9,  2,   0, 0,  1,  0,  0,  0,
/* CON FL MASK */
    4,  7,  15
}


A @0 l192 c l96 d l64 e l48 f l32 g l24 a l16 b l12 >c l6 d l4 e l3 f l2 g l1 a
A @0 l%192 c l%96 d l%64 e l%48 f l%32 g l%24 a l%16 b l%12 >c l%6 d l%4 e l%3 f l%2 g l%1 a
A @0 l2^8 cdef cdef
