#title "Octave test"

@0 = {
/* AR D1R D2R  RR D1L   TL KS MUL DT1 DT2 AME */
   14,  4,  2,  2,  0,  26, 0,  1,  5,  0,  0,
   15, 12,  2,  9,  2,   0, 0,  1,  0,  0,  0,
   14,  4,  2,  2,  0,  36, 0,  1,  1,  0,  0,
   15, 12,  2,  9,  2,   0, 0,  1,  0,  0,  0,
/* CON FL MASK */
    4,  7,  15
}

A @0 o0 d+eff+gg+aa+b o1 cc+dd+eff+gg+aa+b > cc+dd+eff+gg+aa+b o4 < cc+dd+eff+gg+aa+b
A o4 d+eff+gg+aa+b o5 cc+dd+eff+gg+aa+b > cc+dd+eff+gg+aa+b o7 cc+dd+eff+gg+aa+b
A o8 cc+d
