#title "Staccato test"

@0 = {
/* AR D1R D2R  RR D1L   TL KS MUL DT1 DT2 AME */
   14,  4,  2,  2,  0,  26, 0,  1,  5,  0,  0,
   15, 12,  2,  9,  2,   0, 0,  1,  0,  0,  0,
   14,  4,  2,  2,  0,  36, 0,  1,  1,  0,  0,
   15, 12,  2,  9,  2,   0, 0,  1,  0,  0,  0,
/* CON FL MASK */
    4,  7,  15
}


A @0 t120
A q1 c
A q2 c
A q3 c
A q4 c
A q5 c
A q6 c
A q7 c
A q8 c

A @q1 d
A @q10 d
A @q20 d
A @q30 d
A @q40 d
A @q50 d
A @q100 d
A @q150 d
A @q192 d
