#title "Simple notes test"

@0 = {
/* AR D1R D2R  RR D1L   TL KS MUL DT1 DT2 AME */
   14,  4,  2,  2,  0,  26, 0,  1,  5,  0,  0,
   15, 12,  2,  9,  2,   0, 0,  1,  0,  0,  0,
   14,  4,  2,  2,  0,  36, 0,  1,  1,  0,  0,
   15, 12,  2,  9,  2,   0, 0,  1,  0,  0,  0,
/* CON FL MASK */
    4,  7,  15
}


A @0 t19 t20 t30 t40 t50 t100 t200 t300 t400 t500 t1000 t2000 t3000 t4000 t4882 c
